X:120
T:Reel 120
M:4/4
K:Dmaj
L:1/8
 (3ABc |:d2 (3cBA BEEG| (3FED AD FABc|d2cA BAFA| (3Bcd AG FDD2| (3Bcd AF EGGE|DFAc BcdB| (3fga ec dcBA| (3Bcd AF FEEc| (3dcd ec dcde| (3fga fd ecec| (3Bcd dc dfag|fgaf dfeg| (3fgf df  (3fgf df| (3cBA eA fAec|dfec dcBA| (3Bcd AG FDD2|
